X:1
T:Fiaren, Y
T:Briar, The
M:4/4
L:1/8
Q:"Lento"
R:Air
B:Nicholas Bennett – Alawon fy Ngwlad (1896, p. 51)
Z:AK/Fiddler’s Companion
K:Gmin
d2 (G>A) (BA) G2|(c>=B) (3cde d4|d2 (G>A) (B>A) G2|(c>=B) (3cde d4||
(d>^c)(d>=e) (f3e)|(d>^c)(d>=e) f4|g2 (f>e) d2 (c>=B)|
c2 (B>A) [D4B4]|(B>A)(B>c) d2 (G>c)|B2 (A>B) [B,4G4]||

